X:1
T:Sommerlied, 56.64
T:Herman von Müller (1859-?)
T:Sommerlied, 56.64
T:Public Domain
C:Herman von M&#252;ller (1859-?)
Z:Public Domain
%%score ( 1 2 ) ( 3 4 )
L:1/8
M:4/4
K:G
V:1 treble 
V:2 treble 
V:3 bass 
V:4 bass 
V:1
 [DB]2 [DG]2 [DF]2 [DG]2 | z4 z2 E2 x2 | [Cc]2 [EA]2 [DF]2 [^CG]2 | D4 z2 D2 x2 | %4
 [DG]2 [FA]2 [GB]2 [=Fd]2 | [Ec]4 [DB]4 | [^CA]4 [CE]2 [=CF]2 | [B,G]8 |] %8
V:2
 x8 | E6 D4 | x8 | F6 D4 | x8 | x8 | x8 | x8 |] %8
V:3
 [G,,G,]2 [G,,B,]2 [A,,C]2 [B,,G,]2 | [C,G,]4 [B,,^G,]4 x2 | [A,,A,]2 [A,,C]2 [D,A,]2 [E,A,]2 | %3
 [D,A,]4 [C,F,]4 x2 | [B,,G,]2 [D,D]2 [G,D]2 [B,,G,]2 | C,4 D,4 | [E,G,]4 [A,,A,]2 [D,A,]2 | %7
 [G,,G,]8 |] %8
V:4
 x8 | x10 | x8 | x10 | x8 | G,8 | x8 | x8 |] %8

